svg/l/TV.svg

<svg width="32" height="24" viewBox="0 0 32 24" fill="none" xmlns="http://www.w3.org/2000/svg">
<g clip-path="url(#clip0_270_67540)">
<rect width="32" height="24" fill="white"/>
<path fill-rule="evenodd" clip-rule="evenodd" d="M0 0V24H32V0H0Z" fill="#00B4FF"/>
<mask id="mask0_270_67540" style="mask-type:luminance" maskUnits="userSpaceOnUse" x="0" y="0" width="32" height="24">
<path fill-rule="evenodd" clip-rule="evenodd" d="M0 0V24H32V0H0Z" fill="white"/>
</mask>
<g mask="url(#mask0_270_67540)">
</g>
<g clip-path="url(#clip1_270_67540)">
<rect width="18" height="14" fill="#2E42A5"/>
<path d="M-2.00427 12.9998L1.95668 14.737L18.0899 1.88872L20.1792 -0.69281L15.9435 -1.27343L9.36317 4.26326L4.06667 7.99369L-2.00427 12.9998Z" fill="#F7FCFF"/>
<path d="M-1.46204 14.2169L0.555885 15.225L19.4289 -0.932678H16.5955L-1.46204 14.2169Z" fill="#F50100"/>
<path d="M20.0043 12.9998L16.0433 14.737L-0.0898743 1.88872L-2.17919 -0.69281L2.05648 -1.27343L8.63683 4.26326L13.9333 7.99369L20.0043 12.9998Z" fill="#F7FCFF"/>
<path d="M19.8691 13.8733L17.8512 14.8815L9.81489 7.96351L7.43229 7.19059L-2.3802 -0.683947H0.453194L10.2602 7.00368L12.8651 7.9305L19.8691 13.8733Z" fill="#F50100"/>
<path fill-rule="evenodd" clip-rule="evenodd" d="M9.98451 0H7.98451V6H0V8H7.98451V14H9.98451V8H18V6H9.98451V0Z" fill="#F50100"/>
<path fill-rule="evenodd" clip-rule="evenodd" d="M6.48451 0H11.4845V4.5H18V9.5H11.4845L11.5 14H6.5L6.48451 9.5H0V4.5H6.48451V0ZM7.98451 6H0V8H7.98451V14H9.98451V8H18V6H9.98451V0H7.98451V6Z" fill="#F7FCFF"/>
</g>
<path fill-rule="evenodd" clip-rule="evenodd" d="M26.8568 10.6849L27.464 9.55941L28.7961 9.51962L27.7647 8.65823L28.1203 7.49563L27.2312 8.02986L26.1071 7.34821L26.2159 8.63987L25.2088 9.24499L26.5162 9.4084L26.8568 10.6849ZM23.464 11.5594L22.8568 12.6849L22.5162 11.4084L21.2088 11.245L22.2159 10.6399L22.1071 9.34821L23.2312 10.0299L24.1203 9.49563L23.7647 10.6582L24.7961 11.5196L23.464 11.5594ZM20.8568 14.6849L21.464 13.5594L22.7961 13.5196L21.7647 12.6582L22.1203 11.4956L21.2312 12.0299L20.1071 11.3482L20.2159 12.6399L19.2088 13.245L20.5162 13.4084L20.8568 14.6849ZM16.8568 18.6849L17.464 17.5594L18.7961 17.5196L17.7647 16.6582L18.1203 15.4956L17.2312 16.0299L16.1071 15.3482L16.2159 16.6399L15.2088 17.245L16.5162 17.4084L16.8568 18.6849ZM12.9742 21.7356L11.8741 22.3876L12.2396 21.118L11.2031 20.3046H12.378L12.95 19.1414L13.5624 20.3046H14.5997L13.6961 21.118L14.1365 22.3876L12.9742 21.7356ZM17.464 21.5594L16.8568 22.6849L16.5162 21.4084L15.2088 21.245L16.2159 20.6399L16.1071 19.3482L17.2312 20.0299L18.1203 19.4956L17.7647 20.6582L18.7961 21.5196L17.464 21.5594ZM21.464 19.5594L20.8568 20.6849L20.5162 19.4084L19.2088 19.245L20.2159 18.6399L20.1071 17.3482L21.2312 18.0299L22.1203 17.4956L21.7647 18.6582L22.7961 19.5196L21.464 19.5594ZM25.464 17.5594L24.8568 18.6849L24.5162 17.4084L23.2088 17.245L24.2159 16.6399L24.1071 15.3482L25.2312 16.0299L26.1203 15.4956L25.7647 16.6582L26.7961 17.5196L25.464 17.5594ZM26.8568 16.6849L27.464 15.5594L28.7961 15.5196L27.7647 14.6582L28.1203 13.4956L27.2312 14.0299L26.1071 13.3482L26.2159 14.6399L25.2088 15.245L26.5162 15.4084L26.8568 16.6849Z" fill="#FFD018"/>
</g>
<defs>
<clipPath id="clip0_270_67540">
<rect width="32" height="24" fill="white"/>
</clipPath>
<clipPath id="clip1_270_67540">
<rect width="18" height="14" fill="white"/>
</clipPath>
</defs>
</svg>

<svg width="32" height="24" fill="none" xmlns="http://www.w3.org/2000/svg">
  <mask id="a" maskUnits="userSpaceOnUse" x="0" y="0" width="32" height="24">
    <path fill="#fff" d="M0 0h32v24H0z"/>
  </mask>
  <g mask="url(#a)">
    <path fill-rule="evenodd" clip-rule="evenodd" d="M0 0v24h32V0H0z" fill="#00B4FF"/>
    <mask id="b" maskUnits="userSpaceOnUse" x="0" y="0" width="32" height="24">
      <path fill-rule="evenodd" clip-rule="evenodd" d="M0 0v24h32V0H0z" fill="#fff"/>
    </mask>
    <g mask="url(#b)">
      <path fill="#2B409A" d="M0 0h18v14H0z"/>
      <mask id="c" maskUnits="userSpaceOnUse" x="0" y="0" width="18" height="14">
        <path fill="#fff" d="M0 0h18v14H0z"/>
      </mask>
      <g mask="url(#c)">
        <path d="M-2.004 13l3.96 1.737L18.09 1.889l2.09-2.582-4.236-.58-6.58 5.536-5.297 3.73L-2.004 13z" fill="#F7FCFF"/>
        <path d="M-1.462 14.217l2.018 1.008L19.429-.933h-2.833l-18.058 15.15z" fill="#F50100"/>
        <path d="M20.004 13l-3.96 1.737L-.09 1.889-2.18-.693l4.236-.58 6.58 5.536 5.297 3.73L20.004 13z" fill="#F7FCFF"/>
        <path d="M19.87 13.873l-2.019 1.009-8.036-6.918-2.383-.773L-2.38-.684H.453l9.807 7.688 2.605.927 7.004 5.942z" fill="#F50100"/>
        <mask id="d" maskUnits="userSpaceOnUse" x="-2" y="-2" width="22" height="18" fill="#000">
          <path fill="#fff" d="M-2-2h22v18H-2z"/>
          <path fill-rule="evenodd" clip-rule="evenodd" d="M9.985 0h-2v6H0v2h7.985v6h2V8H18V6H9.985V0z"/>
        </mask>
        <path fill-rule="evenodd" clip-rule="evenodd" d="M9.985 0h-2v6H0v2h7.985v6h2V8H18V6H9.985V0z" fill="#F50100"/>
        <path d="M7.985 0v-1.5h-1.5V0h1.5zm2 0h1.5v-1.5h-1.5V0zm-2 6v1.5h1.5V6h-1.5zM0 6V4.5h-1.5V6H0zm0 2h-1.5v1.5H0V8zm7.985 0h1.5V6.5h-1.5V8zm0 6h-1.5v1.5h1.5V14zm2 0v1.5h1.5V14h-1.5zm0-6V6.5h-1.5V8h1.5zM18 8v1.5h1.5V8H18zm0-2h1.5V4.5H18V6zM9.985 6h-1.5v1.5h1.5V6zm-2-4.5h2v-3h-2v3zm1.5 4.5V0h-3v6h3zM0 7.5h7.985v-3H0v3zm1.5.5V6h-3v2h3zm6.485-1.5H0v3h7.985v-3zm1.5 7.5V8h-3v6h3zm.5-1.5h-2v3h2v-3zM8.485 8v6h3V8h-3zM18 6.5H9.985v3H18v-3zM16.5 6v2h3V6h-3zM9.985 7.5H18v-3H9.985v3zM8.485 0v6h3V0h-3z" fill="#F7FCFF" mask="url(#d)"/>
      </g>
      <path fill-rule="evenodd" clip-rule="evenodd" d="M26.857 10.685l.607-1.126 1.332-.04-1.031-.86.355-1.163-.889.534-1.124-.682.109 1.292-1.007.605 1.307.163.34 1.277zm-3.393.874l-.607 1.126-.34-1.277-1.308-.163 1.007-.605-.109-1.292 1.124.682.89-.534-.356 1.162 1.031.862-1.332.04zm-2.607 3.126l.607-1.126 1.332-.04-1.031-.86.355-1.163-.889.534-1.124-.682.109 1.292-1.007.605 1.307.163.34 1.277zm-4 4l.607-1.126 1.332-.04-1.031-.86.355-1.163-.889.534-1.124-.682.109 1.292-1.007.605 1.307.163.34 1.277zm-3.883 3.05l-1.1.653.366-1.27-1.037-.813h1.175l.572-1.164.612 1.164H14.6l-.904.813.44 1.27-1.162-.652zm4.49-.176l-.607 1.126-.34-1.277-1.308-.163 1.007-.605-.109-1.292 1.124.682.89-.534-.356 1.162 1.031.862-1.332.04zm4-2l-.607 1.126-.34-1.277-1.308-.163 1.007-.605-.109-1.292 1.124.682.89-.534-.356 1.162 1.031.862-1.332.04zm4-2l-.607 1.126-.34-1.277-1.308-.163 1.007-.605-.109-1.292 1.124.682.89-.534-.356 1.162 1.031.862-1.332.04zm1.393-.874l.607-1.126 1.332-.04-1.031-.86.355-1.163-.889.534-1.124-.682.109 1.292-1.007.605 1.307.163.34 1.277z" fill="#FFD018"/>
    </g>
  </g>
</svg>
